X:2
T:Miserden
C:Chris Walshaw
R:waltz (5-time)
M:5/4
L:1/4
K:GMix
A2G FG|A2G BG|A2G FG|A^FD BG:|
d2c BA|c2B AG|A2G FG|A^FD BG|
d2c BA|c2B AG|c2B AB|dA^F BG|]

